X: 4222
T: Blueberry Rhubarb
R: jig
M: 6/8
K: Dmajor
|:e|fdA ecA|dFb a2 f|gfg Bcd|ecA E2 e|
fdA ecA|dfb a^ga|gec Ace|gec d2:|
|:e|fdd ecc|dFB A2 F|GBd gab|aec A2 e|
fdf ece|dcB A^GA|GEc Ace|gec d2:|

